!!!OTL: MORGEN WILL MEIN SCHATZ ABREISEN
!!!ARE: Europa, Mitteleuropa, Deutschland, Hessen, Darmstadt
!!!SCT: E0782D
!!!YEM: Copyright 1995, estate of Helmut Schaffrath.
**kern
*ICvox
*Ivox
*M4/4
*k[f#c#]
*D:
=1
{4.A
8F#
8.D
16F#
8.B
16F#
=2
4A
4G
2r}
=3
{4.A
8A
8.c#
16B
8.A
16G
=4
2.F#
4r}
=5
{4.d
8c#
8.e
16d
8.c#
16d
=6
4B
4B}
{8.e
16d
8.c#
16d
=7
8A
8A
8G#
8A
8.c#
16B
8.A
16G#
=8
2F#
4r}
{8.A
16G
=9
4F#
8.F#
16F#
4F#
8.B
16A
=10
4A
8.G
16F#
4G}
{8.A
16B
=11
4c#
8.c#
16c#
4c#
8.B
16A
=12
8A
8d
8d
8d
4d}
{8.A
16G
=13
4F#
8.F#
16F#
4F#
8.d
16c#
=14
4B
8.B
16B
4B}
{8.e
16e
=15
4.d
8d
4.c#
8c#
=16
2d
2r}
==
!!!AGN: Abschieds - Lied, Liebe, Soldaten - Lied
!!!ONB: ESAC (Essen Associative Code) Database: ERK2
!!!AMT: simple quadruple
!!!AIN: vox
!!!EED: Helmut Schaffrath
!!!EEV: 1.0
*-
